X: 7774
T: Come Back With My Bloody Car
R: jig
M: 6/8
K: Adorian
M:9/8
|:ABA ABc BGE|ABA ABc dBG|
M:6/8
ege edc|dge dBG|ced cBA|1 ~B2 D EFG:|2 ~B2 g efg||
|:~a3 agf|gba ~g3|age edB|dBG GAB|
ced cBA|B2 e e2 d|Bed BAG|1 abg efg:|2 ABG EFG||

